X:99
T:Ballydesmond Polka #1
C:Traditional
R:Reel
M:2/4
L:1/8
K:Ador
AB | c2 B2 | AB/A/ GA | Bd ed | g2 ed |
ea ge | dB GA/B/ | ce dB | A2 :|
d2 |: ea ag/e/ | dg gd | ea ab | g2 ed |
ea ge | dB GA/B/ | ce dB | A2 A2 :|

